X:2
T:Alte Galopp  G 5-  (GL02132)
B:Hanny Christen. Bd.II  St. Gallen II, GraubÃ¼nden, Tessin. S.324 (GL02132) orig. C
O:Switzerland
%%MIDI program 21
%abc-charset utf-8
R:galopp
M:2/4
L:1/8
K:Gmaj%%MIDI gchordon
"G"GD/2G/2 BG/2B/2 | dB/2d/2 gB | "D7"d^c =cA | "G"ed BD | GD/2G/2 BG/2B/2 | dB/2d/2 gB | "D7"d^c "G"=cF |1 G2zD :|2 "G"G2zd ||
|: "D7"dc AF | "G"ed BG | "D7"dc AF | "G"ed BG | GD/2G/2 BG/2B/2 | dB/2d/2 gd | "D7"d^c =cF |1 "G"G2zd :|2 "G"G2zG || 
|: "D7"DD EF | "G".G(e/2d/2) BG | "D7"Fe/2d/2 cF | "G"Ge/2d/2 BG | "D7"DD EF | "G"Ge/2d/2 BG | "D7"Fe/2d/2 cF |1 "G"AG GG :|2 "G"AG Gz |] 
% GL02132

